lib/brands/logos/ping-identity.svg

<svg xmlns="http://www.w3.org/2000/svg" fill="none" aria-hidden="true" viewBox="0 0 241 49"><g id="Ping Identity"><g id="Group"><path id="Vector" fill="#B8232F" fill-rule="evenodd" d="M6.34204 41.0123H43.3377V4.01672H6.34204V41.0123Z" clip-rule="evenodd"/><g id="Vector_2"><path fill="#263746" fill-rule="evenodd" d="M195.112 15.0786L198.211 14.5603V35.6786H195.112V15.0786ZM207.266 17.464V30.7811C207.266 33.0636 207.841 33.8527 209.716 33.8527C210.559 33.8527 210.337 33.8623 210.874 33.571L211.296 35.6464C210.337 36.1832 209.984 36.3389 208.643 36.3389C207.648 36.3389 206.884 36.1339 206.155 35.7602C204.817 35.0554 204.319 33.728 204.319 31.6519V17.464H201.831V15.0169H204.319V7.18763H207.383V15.0169H212.168L211.25 17.464H207.266ZM231.811 35.0595C230.621 35.0595 229.66 34.0386 229.66 32.6268C229.66 31.2137 230.621 30.1942 231.811 30.1942C233.002 30.1942 233.965 31.2137 233.965 32.6268C233.965 34.0386 233.002 35.0595 231.811 35.0595ZM231.811 29.6073C230.244 29.6073 228.965 30.9628 228.965 32.6268C228.965 34.2895 230.244 35.6436 231.811 35.6436C233.381 35.6436 234.658 34.2895 234.658 32.6268C234.658 30.9628 233.381 29.6073 231.811 29.6073ZM231.316 32.3677V31.3886H231.85C232.159 31.3886 232.506 31.4544 232.506 31.8562C232.506 32.3162 232.199 32.3677 231.844 32.3677H231.316ZM233.106 31.9083C233.106 31.1884 232.687 30.9038 231.913 30.9038H230.716V34.3258H231.316V32.8524H231.677L232.513 34.3258H233.128L232.262 32.8284C232.79 32.7756 233.106 32.4924 233.106 31.9083ZM230.527 15.0169L223.982 36.4225C222.68 40.5741 221.147 43.3111 217.818 44.1832L216.937 41.9844C218.801 41.3516 219.778 40.4314 220.592 38.1832C220.286 36.5528 220.113 35.8438 220.113 35.8438C219.885 34.5164 218.85 30.4897 218.2 28.417L214.101 15.4736L217.052 14.3923L220.958 27.7931C221.531 29.7458 222.104 32.9381 222.104 32.9381H222.182C222.182 32.9381 222.908 30.284 223.369 28.5836L227.119 15.0169H230.527ZM138.332 30.4081C138.332 30.4081 137.986 31.2796 137.183 31.9028C135.956 32.8551 135.075 33.2295 133.509 33.2295C131.747 33.2295 130.559 32.5247 129.68 30.8229C129.066 29.621 128.914 27.8356 128.914 25.429C128.914 22.5253 129.219 21.0327 130.138 19.4557C130.943 18.0454 132.205 17.2987 133.701 17.2987C135.956 17.2987 137.376 18.0056 138.332 19.4557V30.4081ZM141.356 7.18763H138.369V14.0646C138.369 15.5558 138.407 17.2576 138.407 17.2576C137.261 15.5983 135.382 14.6446 133.241 14.6446C131.861 14.6446 130.79 15.0169 129.564 15.9302C126.961 17.8781 125.623 21.115 125.623 25.512C125.623 32.1071 128.455 35.9659 133.391 35.9659C135.612 35.9659 137.069 35.2631 138.445 33.5627C138.483 34.6378 138.867 35.6786 138.867 35.6786H141.93C141.507 34.4733 141.356 32.5651 141.356 29.0005V7.18763ZM186.936 15.0587H191.86L190.943 17.5058H186.821V30.8229C186.821 33.1061 187.395 33.8959 189.271 33.8959C190.114 33.8959 189.891 33.9055 190.429 33.6128L190.851 35.6889C189.891 36.2264 189.538 36.3821 188.197 36.3821C187.203 36.3821 186.438 36.1764 185.709 35.8034C184.371 35.0979 183.872 33.7698 183.872 31.6944V17.5058H181.385V15.0587H183.872V7.23083H186.936V15.0587ZM178.245 17.5887C178.551 18.3361 178.705 19.1643 178.705 19.996V35.68H175.679V21.6964C175.679 19.4962 175.526 18.9593 174.99 18.2524C174.57 17.7142 173.764 17.381 172.885 17.381C171.351 17.381 168.981 18.7118 167.602 20.286V35.68H164.693V19.7478C164.693 16.801 163.967 15.3906 163.967 15.3906L166.874 14.5185C166.874 14.5185 167.566 16.0509 167.566 17.7554C169.553 15.5983 171.542 14.5603 173.574 14.5603C175.641 14.5603 177.48 15.765 178.245 17.5887ZM148.681 23.4372C148.832 19.163 150.364 17.0073 153.081 17.0073C154.538 17.0073 155.876 17.7142 156.526 18.8325C157.101 19.828 157.369 21.1979 157.407 23.4372H148.681ZM153.235 14.476C150.936 14.476 149.062 15.3906 147.53 17.3392C145.923 19.4173 145.236 21.6546 145.236 25.1404C145.236 31.9871 148.41 36.1339 153.694 36.1339C156.145 36.1339 158.443 35.222 160.125 33.5627L158.976 31.4852C157.637 32.8147 156.145 33.4352 154.306 33.4352C152.391 33.4352 150.63 32.6899 149.559 30.9059C148.908 29.8301 148.681 28.3341 148.681 26.3855V25.8856H160.583V25.429C160.509 20.4945 160.047 18.5438 158.405 16.7159C157.101 15.2665 155.302 14.476 153.235 14.476ZM118.386 35.6786H121.45V7.21712H118.386V35.6786Z" clip-rule="evenodd"/><path fill="#263746" fill-rule="evenodd" d="M115.171 14.0913L117.329 17.5623C116.209 18.6644 115.132 19.1142 113.706 19.1142C113.204 19.1142 112.663 19.0343 112.354 18.9936C113.126 19.9702 113.514 21.0327 113.514 22.421C113.514 26.0129 110.428 28.6285 106.225 28.6285C105.993 28.6285 105.839 28.6285 105.455 28.5866C104.145 29.2415 103.413 29.7309 103.413 30.3013C103.413 30.5872 103.719 30.7923 104.26 30.7923L107.037 30.8331C110.042 30.8733 111.622 31.3627 113.012 32.7119C114.167 33.8543 114.709 35.2834 114.709 37.1628C114.709 38.9183 114.207 40.2647 113.126 41.4887C111.392 43.4501 108.421 44.1832 105.338 44.1832C102.526 44.1832 99.6333 43.6944 97.8609 41.9378C96.781 40.8775 96.242 39.65 96.242 38.2242C96.242 37.0808 96.5103 36.5071 96.704 36.1003H101.485C101.291 36.5908 101.251 36.8745 101.251 37.4454C101.251 39.121 102.565 40.0171 104.955 40.0171C106.265 40.0171 107.384 39.8569 108.192 39.3242C108.963 38.8348 109.464 38.0601 109.464 37.2019C109.464 35.3253 107.885 34.7522 105.839 34.7114L103.642 34.6701C101.33 34.6277 99.8276 34.4264 98.9009 34.0163C97.9742 33.65 97.3979 32.7119 97.3979 31.2823C97.3979 29.9358 97.7817 28.6676 101.021 27.7714C98.1679 26.9945 96.781 25.0754 96.781 21.9735C96.781 17.6862 100.059 14.9104 105.107 14.9104C106.225 14.9104 107.228 15.0734 108.655 15.4394C109.732 15.7242 110.428 15.8897 111.083 15.8897C112.51 15.8897 113.975 15.2365 115.171 14.0913ZM82.3968 14.7465C82.8609 15.6047 83.1306 16.5014 83.1306 17.3585C83.9009 16.7856 84.5568 16.2957 85.4056 15.8068C86.4459 15.2365 87.7965 14.9104 88.9515 14.9104C91.1496 14.9104 93.0772 16.1332 93.6934 17.9316C93.9631 18.7066 94.0795 19.6041 94.0795 20.911V36.1818H88.9889V22.5849C88.9889 20.2178 88.6049 19.5243 87.2548 19.5243C86.2162 19.5243 84.8672 20.2596 83.6723 21.4004V36.1818H78.5039V21.0327C78.5039 19.2362 78.2723 17.5215 77.8109 16.1332L82.3968 14.7465ZM74.3002 14.7845V36.1818H69.1357V15.6421L74.3002 14.7845ZM55.6767 7.8051C60.2252 7.8051 61.6138 8.29394 63.1193 9.19288C65.6222 10.6633 66.9701 13.2755 66.9701 16.5438C66.9701 20.2987 65.2758 23.3205 62.3467 24.7898C61.1128 25.4023 59.955 25.7295 56.9877 25.7295H54.0204V36.1818H48.6229V7.8051H55.6767ZM105.068 18.9098C103.103 18.9098 101.984 20.055 101.984 22.0137C101.984 24.1374 103.218 24.9933 105.03 24.9933C107.075 24.9933 108.192 23.9327 108.192 22.0137C108.192 20.055 107.037 18.9098 105.068 18.9098ZM57.4485 12.4174H54.0204V21.0743H56.8342C59.0311 21.0743 59.6873 20.7881 60.4175 19.6041C60.8828 18.8305 61.0731 18.0126 61.0731 16.6639C61.0731 14.0103 59.7247 12.4174 57.4485 12.4174ZM71.7943 6.13062C73.5292 6.13062 74.9184 7.64178 74.9184 9.51896C74.9184 11.3967 73.4902 12.909 71.7167 12.909C69.9833 12.909 68.5562 11.3967 68.5562 9.51896C68.5562 7.64178 70.0216 6.13062 71.7943 6.13062Z" clip-rule="evenodd"/></g></g></g></svg>

<svg xmlns="http://www.w3.org/2000/svg" fill="none" aria-hidden="true" viewBox="0 0 241 49"><path fill="#B8232F" fill-rule="evenodd" d="M6.342 41.012h36.996V4.017H6.342v36.995Z" clip-rule="evenodd"/><path fill="#263746" fill-rule="evenodd" d="m195.112 15.079 3.099-.519v21.12h-3.099v-20.6Zm12.154 2.385v13.317c0 2.283.575 3.072 2.45 3.072.843 0 .621.01 1.158-.282l.422 2.075c-.959.537-1.313.693-2.653.693-.995 0-1.759-.205-2.488-.579-1.338-.705-1.836-2.032-1.836-4.108V17.464h-2.489v-2.447h2.489v-7.83h3.064v7.83h4.785l-.918 2.447h-3.984Zm24.545 17.596c-1.19 0-2.152-1.021-2.152-2.433 0-1.413.962-2.433 2.152-2.433 1.191 0 2.154 1.02 2.154 2.433 0 1.412-.963 2.432-2.154 2.432Zm0-5.453c-1.567 0-2.846 1.356-2.846 3.02 0 1.662 1.279 3.017 2.846 3.017 1.57 0 2.847-1.355 2.847-3.017 0-1.664-1.277-3.02-2.847-3.02Zm-.495 2.76v-.978h.534c.309 0 .656.065.656.467 0 .46-.307.512-.662.512h-.528Zm1.79-.459c0-.72-.419-1.004-1.193-1.004h-1.197v3.422h.6v-1.474h.361l.836 1.474h.615l-.866-1.498c.528-.052.844-.336.844-.92Zm-2.579-16.891-6.546 21.405c-1.301 4.152-2.834 6.89-6.163 7.761l-.881-2.199c1.864-.632 2.841-1.553 3.655-3.8-.306-1.631-.479-2.34-.479-2.34-.228-1.328-1.263-5.354-1.913-7.427l-4.099-12.943 2.951-1.082 3.906 13.401c.572 1.953 1.146 5.145 1.146 5.145h.078s.726-2.654 1.187-4.354l3.75-13.567h3.408Zm-92.195 15.391s-.346.872-1.149 1.495c-1.227.952-2.108 1.327-3.674 1.327-1.762 0-2.95-.705-3.829-2.407-.614-1.202-.766-2.987-.766-5.394 0-2.904.304-4.396 1.224-5.973.805-1.41 2.067-2.157 3.563-2.157 2.255 0 3.675.707 4.631 2.157v10.952Zm3.024-23.22h-2.987v6.877c0 1.49.038 3.193.038 3.193-1.146-1.66-3.025-2.613-5.166-2.613-1.38 0-2.451.372-3.677 1.285-2.603 1.948-3.942 5.185-3.942 9.582 0 6.595 2.833 10.454 7.769 10.454 2.221 0 3.678-.703 5.054-2.403.038 1.075.422 2.116.422 2.116h3.063c-.423-1.206-.574-3.114-.574-6.679V7.188Zm45.58 7.87h4.924l-.917 2.448h-4.122v13.317c0 2.283.573 3.073 2.449 3.073.844 0 .621.01 1.159-.283l.422 2.076c-.96.537-1.313.693-2.654.693-.994 0-1.759-.206-2.488-.579-1.338-.705-1.837-2.033-1.837-4.109V17.506h-2.487v-2.447h2.487V7.23h3.064v7.828Zm-8.691 2.53c.306.748.46 1.576.46 2.408V35.68h-3.026V21.696c0-2.2-.153-2.737-.689-3.444-.42-.538-1.226-.871-2.105-.871-1.534 0-3.904 1.33-5.283 2.905V35.68h-2.909V19.748c0-2.947-.726-4.357-.726-4.357l2.907-.873s.692 1.533.692 3.237c1.987-2.157 3.976-3.195 6.008-3.195 2.067 0 3.906 1.205 4.671 3.029Zm-29.564 5.85c.151-4.275 1.683-6.43 4.4-6.43 1.457 0 2.795.706 3.445 1.825.575.995.843 2.365.881 4.604h-8.726Zm4.553-8.962c-2.298 0-4.172.915-5.704 2.863-1.607 2.078-2.294 4.316-2.294 7.801 0 6.847 3.174 10.994 8.458 10.994 2.451 0 4.749-.912 6.431-2.571l-1.15-2.078c-1.338 1.33-2.83 1.95-4.669 1.95-1.915 0-3.676-.745-4.747-2.53-.651-1.075-.878-2.57-.878-4.52v-.5h11.902v-.456c-.074-4.934-.536-6.885-2.178-8.713-1.304-1.45-3.104-2.24-5.171-2.24Zm-34.848 21.203h3.063V7.217h-3.063V35.68Zm-3.215-21.588 2.158 3.471c-1.12 1.102-2.197 1.552-3.623 1.552-.502 0-1.043-.08-1.352-.12.771.976 1.16 2.039 1.16 3.427 0 3.592-3.086 6.207-7.289 6.207-.232 0-.386 0-.771-.041-1.309.654-2.042 1.144-2.042 1.714 0 .286.307.491.848.491l2.777.041c3.005.04 4.585.53 5.975 1.879 1.155 1.142 1.697 2.571 1.697 4.45 0 1.756-.503 3.103-1.584 4.327-1.733 1.961-4.704 2.694-7.787 2.694-2.812 0-5.705-.489-7.477-2.245-1.08-1.06-1.619-2.288-1.619-3.714 0-1.143.268-1.717.462-2.124h4.781c-.194.49-.234.774-.234 1.345 0 1.676 1.314 2.572 3.704 2.572 1.31 0 2.429-.16 3.237-.693.771-.49 1.271-1.264 1.271-2.122 0-1.877-1.579-2.45-3.624-2.49l-2.197-.042c-2.312-.042-3.814-.244-4.741-.654-.927-.366-1.503-1.304-1.503-2.734 0-1.346.384-2.614 3.623-3.51-2.853-.777-4.24-2.697-4.24-5.798 0-4.288 3.278-7.064 8.326-7.064 1.118 0 2.12.163 3.548.53 1.077.284 1.773.45 2.428.45 1.426 0 2.892-.654 4.088-1.799Zm-32.774.655c.464.859.733 1.755.733 2.612.77-.572 1.427-1.062 2.276-1.551 1.04-.57 2.39-.897 3.545-.897 2.199 0 4.126 1.223 4.742 3.022.27.775.386 1.672.386 2.979v15.27h-5.09V22.586c0-2.367-.384-3.06-1.734-3.06-1.039 0-2.388.735-3.583 1.875v14.782h-5.168v-15.15c0-1.796-.232-3.51-.693-4.899l4.586-1.386Zm-8.097.038v21.398h-5.164v-20.54l5.164-.857ZM55.677 7.805c4.548 0 5.937.489 7.442 1.388 2.503 1.47 3.851 4.082 3.851 7.35 0 3.756-1.694 6.777-4.623 8.247-1.234.612-2.392.94-5.36.94H54.02v10.452h-5.397V7.805h7.054Zm49.391 11.105c-1.965 0-3.084 1.145-3.084 3.104 0 2.123 1.234 2.98 3.046 2.98 2.044 0 3.162-1.061 3.162-2.98 0-1.959-1.155-3.104-3.124-3.104Zm-47.62-6.493H54.02v8.657h2.814c2.197 0 2.853-.286 3.583-1.47.466-.773.656-1.591.656-2.94 0-2.654-1.348-4.247-3.624-4.247Zm14.346-6.286c1.735 0 3.124 1.51 3.124 3.388s-1.428 3.39-3.201 3.39c-1.734 0-3.16-1.512-3.16-3.39 0-1.877 1.465-3.388 3.237-3.388Z" clip-rule="evenodd"/></svg>
